X: 4
T: Stoney Steps
R: reel
M: 4/4
L: 1/8
K: Dmaj
dB|~A3B A~F3|ABde fdBA|F~A3 BAFA|EFGE FDDB|~A3B A~F3|ABde fdBA|F~A3 BAFA|EFGE FDDe||fedc defg|afbf afeg|fedc dBAd|BdAF ~E3e|fedc defg|afbf afeg|~f3d efde|fgaf efdB||


Tune 571	Setting 13547

